src/assets/outline/SmsSearch.svg

<svg width="24" height="24" viewBox="0 0 24 24"  xmlns="http://www.w3.org/2000/svg">
<path d="M12 21.25H7C3.35 21.25 1.25 19.15 1.25 15.5V8.5C1.25 4.85 3.35 2.75 7 2.75H17C20.65 2.75 22.75 4.85 22.75 8.5V11.5C22.75 11.91 22.41 12.25 22 12.25C21.59 12.25 21.25 11.91 21.25 11.5V8.5C21.25 5.64 19.86 4.25 17 4.25H7C4.14 4.25 2.75 5.64 2.75 8.5V15.5C2.75 18.36 4.14 19.75 7 19.75H12C12.41 19.75 12.75 20.09 12.75 20.5C12.75 20.91 12.41 21.25 12 21.25Z" />
<path d="M11.9998 12.87C11.1598 12.87 10.3098 12.61 9.65978 12.08L6.52978 9.57996C6.20978 9.31996 6.14978 8.84997 6.40978 8.52997C6.66978 8.20997 7.13977 8.15997 7.45977 8.40997L10.5898 10.91C11.3498 11.52 12.6398 11.52 13.3998 10.91L16.5298 8.40997C16.8498 8.14997 17.3198 8.19997 17.5798 8.52997C17.8398 8.84997 17.7898 9.32996 17.4598 9.57996L14.3298 12.08C13.6898 12.61 12.8398 12.87 11.9998 12.87Z" />
<path d="M18.2 22.15C16.02 22.15 14.25 20.38 14.25 18.2C14.25 16.02 16.02 14.25 18.2 14.25C20.38 14.25 22.15 16.02 22.15 18.2C22.15 20.38 20.38 22.15 18.2 22.15ZM18.2 15.75C16.85 15.75 15.75 16.85 15.75 18.2C15.75 19.55 16.85 20.65 18.2 20.65C19.55 20.65 20.65 19.55 20.65 18.2C20.65 16.85 19.55 15.75 18.2 15.75Z" />
<path d="M21.9999 22.7499C21.8099 22.7499 21.6199 22.6799 21.4699 22.5299L20.4699 21.5299C20.1799 21.2399 20.1799 20.7599 20.4699 20.4699C20.7599 20.1799 21.2399 20.1799 21.5299 20.4699L22.5299 21.4699C22.8199 21.7599 22.8199 22.2399 22.5299 22.5299C22.3799 22.6799 22.1899 22.7499 21.9999 22.7499Z" />
</svg>

<?xml version="1.0" encoding="UTF-8"?>
<svg width="24" height="24" viewBox="0 0 24 24" xmlns="http://www.w3.org/2000/svg">
 <path d="m12 21.25h-5c-3.65 0-5.75-2.1-5.75-5.75v-7c0-3.65 2.1-5.75 5.75-5.75h10c3.65 0 5.75 2.1 5.75 5.75v3c0 0.41-0.34 0.75-0.75 0.75s-0.75-0.34-0.75-0.75v-3c0-2.86-1.39-4.25-4.25-4.25h-10c-2.86 0-4.25 1.39-4.25 4.25v7c0 2.86 1.39 4.25 4.25 4.25h5c0.41 0 0.75 0.34 0.75 0.75s-0.34 0.75-0.75 0.75z"/>
 <path d="m12 12.87c-0.84 0-1.69-0.26-2.34-0.79l-3.13-2.5c-0.32-0.26-0.38-0.72999-0.12-1.05s0.72999-0.37 1.05-0.12l3.13 2.5c0.76 0.61 2.05 0.61 2.81 0l3.13-2.5c0.32-0.26 0.79-0.21 1.05 0.12 0.26 0.32 0.21 0.79999-0.12 1.05l-3.13 2.5c-0.64 0.53-1.49 0.79-2.33 0.79z"/>
 <path d="m18.2 22.15c-2.18 0-3.95-1.77-3.95-3.95s1.77-3.95 3.95-3.95 3.95 1.77 3.95 3.95-1.77 3.95-3.95 3.95zm0-6.4c-1.35 0-2.45 1.1-2.45 2.45s1.1 2.45 2.45 2.45 2.45-1.1 2.45-2.45-1.1-2.45-2.45-2.45z"/>
 <path d="m22 22.75c-0.19 0-0.38-0.07-0.53-0.22l-1-1c-0.29-0.29-0.29-0.77 0-1.06s0.77-0.29 1.06 0l1 1c0.29 0.29 0.29 0.77 0 1.06-0.15 0.15-0.34 0.22-0.53 0.22z"/>
</svg>
